X:3
T: Fordulj kedves lovam...
O: Ördöngősfüzes, Mezei Ferenc és zenekara, 1967
M:10/8
L:1/4
K:F
c/d/ d/d dd3/2 | d/d/ fd/ d c3/2 | 
f/f/ g/g  f c3/2 | c/c/ f c/ d B3/2 | 
d/c/ B G/ A F3/2 | F/G/ GG/ B d3/2 | 
d/c/ B G/ F c3/2 | d/c/ G/G  G G3/2 | 

